!!!COM: Palestrina, Giovanni Perluigi da
!!!OPR: Missa Illumina oculos meos
!!!OMD: Kyrie
!!!OTL: First Section
**kern	**kern	**kern	**kern	**kern	**kern
*Ibass	*Ibarit	*Itenor	*Itenor	*Icalto	*Icant
!Bassus	!Baritone	!Tenor 2	!Tenor 1	!Altus	!Cantus
*clefF4	*clefF4	*clefGv2	*clefGv2	*clefG2	*clefG2
*k[]	*k[]	*k[]	*k[]	*k[]	*k[]
*E:phr	*E:phr	*E:phr	*E:phr	*E:phr	*E:phr
*M4/2	*M4/2	*M4/2	*M4/2	*M4/2	*M4/2
=1	=1	=1	=1	=1	=1
0r	0E	0r	0r	0e	0e
=2	=2	=2	=2	=2	=2
0r	1E	0r	0r	1e	1g
.	1F	.	.	1A	1a
=3	=3	=3	=3	=3	=3
0E	1E	1r	0B	[0e	0g
.	1r	1E	.	.	.
=4	=4	=4	=4	=4	=4
1E	0r	1G	1B	0e]	0r
1AA	.	1A	1c	.	.
=5	=5	=5	=5	=5	=5
[0E	1r	0G	0B	1r	0b
.	1E	.	.	1e	.
=6	=6	=6	=6	=6	=6
1E]	1G	0r	1r	1.e	1b
1r	1A	.	1e	.	1cc
.	.	.	.	2f	.
=7	=7	=7	=7	=7	=7
0r	1E	0r	1e	1g	2b
.	.	.	.	.	1cc
.	1F	.	1A	[1c	.
.	.	.	.	.	4b
.	.	.	.	.	4a
=8	=8	=8	=8	=8	=8
0r	1.E	0r	1.e	2c]	2.g
.	.	.	.	4B	.
.	.	.	.	4A	4a
.	.	.	.	2G	2b
.	2C	.	2e	[2g	2cc
=9	=9	=9	=9	=9	=9
0r	2G	0r	2d	4g]	2b
.	.	.	.	4f	.
.	2A	.	2c	4e	1a
.	.	.	.	4d	.
.	1E	.	1B	1e	.
.	.	.	.	.	4g
.	.	.	.	.	4f#
=10	=10	=10	=10	=10	=10
0E	0r	0B	1r	[0e	2g
.	.	.	.	.	2e
.	.	.	1E	.	2.g
.	.	.	.	.	4a
=11	=11	=11	=11	=11	=11
1E	0r	1B	1G	1e_	1b
1AA	.	1c	1A	1e_	1a
=12	=12	=12	=12	=12	=12
1.E	0r	2.B	1.G	0e]	2r
.	.	.	.	.	2e
.	.	4A	.	.	.
.	.	2B	.	.	2.g
2E	.	2c	2G	.	.
.	.	.	.	.	4a
=13	=13	=13	=13	=13	=13
2D	0r	2B	2F	0r	2b
2C	.	1A	2E	.	2cc
1BB	.	.	1D	.	[1dd
.	.	2G#	.	.	.
=14	=14	=14	=14	=14	=14
[0AA	1r	1A	0E	0e	2dd]
.	.	.	.	.	4cc
.	.	.	.	.	4b
.	1A	2r	.	.	1cc
.	.	2A	.	.	.
=15	=15	=15	=15	=15	=15
1AA]	1A	1c	0r	1e	2r
.	.	.	.	.	2a
1r	1D	1d	.	1f	2a
.	.	.	.	.	2b
=16	=16	=16	=16	=16	=16
0r	1.A	2c	0r	2.e	1.cc
.	.	2A	.	.	.
.	.	.	.	4d	.
.	.	1c	.	2e	.
.	2A	.	.	2f	4b
.	.	.	.	.	4a
=17	=17	=17	=17	=17	=17
0r	2G	4d	0r	2g	2b
.	.	4c	.	.	.
.	2F	4B	.	2d	1a
.	.	4A	.	.	.
.	1E	1B	.	2e	.
.	.	.	.	[2e	2g#
=18	=18	=18	=18	=18	=18
1AA	0r	1A	2r	2e]	0a
.	.	.	1A	4d	.
.	.	.	.	4c	.
[1D	.	2r	.	[1f	.
.	.	[2A	4G	.	.
.	.	.	4F	.	.
=19	=19	=19	=19	=19	=19
1D]	0r	2A]	2A	1f]	0r
.	.	4G	2B	.	.
.	.	4F	.	.	.
1C	.	2A	1c	1e	.
.	.	[2G	.	.	.
=20	=20	=20	=20	=20	=20
1.D	0r	2G]	2.A	1d	1r
.	.	1F	.	.	.
.	.	.	4G	.	.
.	.	.	4A	2d	[1a
.	.	.	4B	.	.
4C	.	4E	[2c	[2e	.
4BB	.	4D	.	.	.
=21	=21	=21	=21	=21	=21
2C	0r	2E	4c]	2e]	1a]
.	.	.	4B	.	.
2D	.	2F	1A	4d	.
.	.	.	.	4c	.
1BB	.	1D	.	1d	[1dd
.	.	.	2G#	.	.
=22	=22	=22	=22	=22	=22
0AA	1E	0r	1A	2r	2dd]
.	.	.	.	1e	2cc
.	[1A	.	2r	.	1cc
.	.	.	[2e	4d	.
.	.	.	.	4c	.
=23	=23	=23	=23	=23	=23
0r	1A]	0r	2e]	2e	2a
.	.	.	4d	2f	1cc
.	.	.	4c	.	.
.	1G	.	2e	1g	.
.	.	.	2d	.	2b
=24	=24	=24	=24	=24	=24
0r	1.A	1r	2c	[0e	2a
.	.	.	4A	.	1cc
.	.	.	4B	.	.
.	.	2r	4c	.	.
.	.	.	4d	.	.
.	4G	[2E	[2e	.	4b
.	4F	.	.	.	4a
=25	=25	=25	=25	=25	=25
0r	2G	2E]	4e]	1e]	2b
.	.	.	4d	.	.
.	2A	2.e	4c	.	2.cc
.	.	.	4B	.	.
.	1F	.	1A	2r	.
.	.	8d	.	.	4b
.	.	8c	.	.	.
.	.	2d	.	2A	[2a
=26	=26	=26	=26	=26	=26
2r	1E	1e	0r	2B	2a]
2E	.	.	.	2c	2g
[1A	2D	2r	.	2d	2f
.	2C	[2c	.	2e	[2e
=27	=27	=27	=27	=27	=27
1A]	1F	2c]	1r	1A	2e]
.	.	4B	.	.	2d
.	.	4A	.	.	.
1G	1E	2B	2r	2r	1e
.	.	2B	2E	[2e	.
=28	=28	=28	=28	=28	=28
1.A	0r	2c	2.e	2e]	1r
.	.	4A	.	2c	.
.	.	4B	4d	.	.
.	.	4c	2c	2e	[1e
.	.	4d	.	.	.
4G	.	[2e	4B	[2g	.
4F	.	.	4A	.	.
=29	=29	=29	=29	=29	=29
2G	0r	4e]	2B	4g]	1e]
.	.	4d	.	4f	.
2A	.	4c	1c	1e	.
.	.	4B	.	.	.
1F	.	2A	.	.	1a
.	.	2D	2A	2d	.
=30	=30	=30	=30	=30	=30
2E	1E	2G	2B	1e	2g
2C	.	2E	1e	.	2g
1D	[1A	1F	.	2r	4f
.	.	.	.	.	4g
.	.	.	2d	2A	4a
.	.	.	.	.	4b
=31	=31	=31	=31	=31	=31
1AA	1A]	0E	2c	1.e	1cc
.	.	.	2A	.	.
1E	1G	.	1B	.	1b
.	.	.	.	2e	.
=32	=32	=32	=32	=32	=32
1AA	1.A	2r	2.c	2e	2a
.	.	4A	.	4c	1cc
.	.	4B	4B	4d	.
1r	.	4c	2A	4e	.
.	.	4d	.	4f	.
.	4G	[2e	2E	[2g	[2b
.	4F	.	.	.	.
=33	=33	=33	=33	=33	=33
2r	2G	4e]	1E	4g]	2b]
.	.	4d	.	4f	.
2AA	2A	4c	.	1e	4a
.	.	4B	.	.	4g
1D	1F	2A	2r	.	1a
.	.	2D	2A	2d	.
=34	=34	=34	=34	=34	=34
1C	[0E	2G	2c	[0e	2r
.	.	2E	2G	.	2.cc
1AA	.	1c	1A	.	.
.	.	.	.	.	4b
.	.	.	.	.	[2a
=35	=35	=35	=35	=35	=35
1E	1E_	1B	1B	1e_	2a]
.	.	.	.	.	2g#
1AA	1E_	1A	1c	1e_	1a
=36	=36	=36	=36	=36	=36
0E	0E]	0G#	0B	0e]	0b
*-	*-	*-	*-	*-	*-
!!!CDT: 1525/^1526/-1594/2/2
!!!OCY: Italia
!!!AGN: Mass (Parody)
!!!AST: renaissance, vocal
!!!ASW: Motet (Silva)
!!!PWK: Masses, Book 10
!!!RNB: Cadence finals: G,C,A
!!!YOR: Le Opere Complete, v. 27, p. 155
!!!YOO: Rome, Italy: Fratelli Scalera
!!!END: 1992//
!!!EED: John Miller
!!!YEC: Copyright 2000, John Miller
!!!YEN: United States of America
!!!YEM: Rights to all derivative electronic formats reserved.
!!!YEM: Refer to licensing agreement for further details.
!!!YEM: This file must be accompanied by the licensing agreement.
!!!YEM: A copy of the licensing agreement may be found at http://www.music-cog.ohio-state.edu/HumdrumDatabases/Palestrina/license.txt
!!!EMD: converted to Humdrum by Bret Aarden
